X:1
T:Jesus Allt Mitt Goda Är
T:Jesus Allt Mitt Goda Är
T:Jakob Arrhenius? 1694
T:Public Domain Courtesy of the Cyber Hymnal™
C:Jakob Arrhenius? 1694
Z:Public Domain
Z:Courtesy of the Cyber Hymnal™
%%score ( 1 2 ) 3
L:1/8
Q:1/4=108
M:2/4
K:G
V:1 treble 
V:2 treble 
V:3 bass 
V:1
 [B,G]2 D2 | [CE]2 [CF]2 | [DG]2 [EA]2 | [DF]4 | [B,G]2 [DA]2 | [DB]2 [Dd]2 | [Ec]2 [DB]2 | %7
 [DA]2 [DA]2 | [DB]2 [DF]2 | [DG]2 [EA]2 | [DF]2 [^CE]2 | D4 | [B,E]2 [^DF]2 | [EG]2 [EG]2 | %14
 [CA]2 [EA]2 | [EB]2 [^DB]2 | [DA]2 [DA]2 | [Dd]2 [B,G]2 | [Ec]2 [DB]2 | [DA]4 | [DB]2 [DF]2 | %21
 [B,G]2 [EA]2 | [DG]2 [DF]2 | [DG]4 |] %24
V:2
 x2 D2 | x4 | x4 | x4 | x4 | x4 | x4 | x4 | x4 | x4 | x4 | D4 | x4 | x4 | x4 | x4 | x4 | x4 | x4 | %19
 x4 | x4 | x4 | x4 | x4 |] %24
V:3
 [G,,G,]2 [B,,G,]2 | [C,G,]2 [A,,C]2 | [B,,B,]2 [^C,A,]2 | [D,A,]4 | [E,G,]2 [D,F,]2 | %5
 [G,,G,]2 [B,,G,]2 | [C,G,]2 [G,,G,]2 | [D,G,]2 [D,F,]2 | [G,,G,]2 [D,A,]2 | [B,,B,]2 [^C,A,]2 | %10
 [D,A,]2 [A,,A,]2 | [D,F,]4 | [G,B,]2 [F,A,]2 | [E,B,]2 [C,E,]2 | [A,,E,]2 [C,E,]2 | %15
 [B,,F,]2 [B,,F,]2 | [D,F,]2 [C,F,]2 | [B,,G,]2 [E,G,]2 | [C,G,]2 [G,,G,]2 | [D,F,]4 | %20
 [G,,G,]2 [D,A,]2 | [E,G,]2 [C,C]2 | [D,B,]2 [D,A,]2 | [G,,B,]4 |] %24

